app/assets/images/forest-logo.svg

<svg fill="none" height="88" viewBox="0 0 184 88" width="184" xmlns="http://www.w3.org/2000/svg"><g fill="#808080"><path d="m28.8566 27.1961c12.4247-.9652 19.9351-7.0656 22.2753-15.1961-16.3968 7.7898-36.8568-1.7399-40.7292 15.4723l-1.98514 9.1758c3.45334-5.5245 8.01484-8.4867 20.43904-9.452zm-6.4604 1.5625c-6.1066.9071-11.0049 3.8279-13.75383 8.958-.88502 1.6507-1.19583 3.4248-1.19583 3.4248l-1.40511 6.4947c1.76019-3.2364 4.90807-7.3727 13.15807-9.3409.1856-1.0299 1.3121-6.9333 3.1967-9.5366zm-17.63691 24.8038-2.14614 9.9205c5.68621-11.1632 17.92305-13.3298 19.43415-13.6555 10.656-2.2976 15.7864-7.7529 17.8265-14.8422-9.2978 5.4212-31.00067-1.386-35.11451 18.5772zm-3.17976 14.7003-1.57953 7.3013c12.6018-.7315 13.9917-13.2184 16.0479-23.1379-3.9206 1.411-12.56104 6.9405-14.46837 15.8366z"/><path clip-rule="evenodd" d="m74.3082 32.7626v8.5833h12.0617v4.2699h-12.0617v13.376h-4.5123v-30.4991h17.5719v4.2699zm26.6398 5.4462c2.083 0 3.956.4648 5.619 1.3943s2.972 2.2075 3.926 3.8342c.955 1.6266 1.432 3.4565 1.432 5.4898s-.477 3.8632-1.432 5.4899c-.954 1.6266-2.263 2.9046-3.926 3.8341s-3.536 1.3943-5.619 1.3943c-2.0825 0-3.9554-.4648-5.6186-1.3943s-2.972-2.2075-3.9266-3.8341c-.9545-1.6267-1.4317-3.4566-1.4317-5.4899s.4772-3.8632 1.4317-5.4898c.9546-1.6267 2.2634-2.9047 3.9266-3.8342s3.5361-1.3943 5.6186-1.3943zm0 4.1828c-1.909 0-3.4637.5954-4.6641 1.7864-1.2004 1.1909-1.8005 2.7739-1.8005 4.7491s.6001 3.5582 1.8005 4.7492c1.2004 1.1909 2.7551 1.7863 4.6641 1.7863s3.464-.5954 4.664-1.7863c1.201-1.191 1.801-2.774 1.801-4.7492s-.6-3.5582-1.801-4.7491c-1.2-1.191-2.755-1.7864-4.664-1.7864zm26.163.8714h-.651c-2.112 0-3.702.5446-4.773 1.6339-1.07 1.0892-1.605 2.8102-1.605 5.163v8.9319h-4.252v-20.1294h4.252v4.4006h.087c.491-1.5395 1.309-2.7595 2.451-3.6599 1.143-.9005 2.538-1.3507 4.187-1.3507h.304zm11.975-5.0542c3.008 0 5.358.9658 7.05 2.8975 1.692 1.9316 2.538 4.5385 2.538 7.8208v.6971h-15.532c.086 1.7719.687 3.2024 1.8 4.2917 1.114 1.0893 2.538 1.6339 4.274 1.6339 1.446 0 2.654-.3413 3.623-1.0239s1.815-1.5177 2.538-2.5053l2.994 2.8321c-2.314 3.1951-5.337 4.7927-9.068 4.7927-2.112 0-3.956-.443-5.532-1.3289-1.577-.8859-2.792-2.1349-3.645-3.747-.853-1.6122-1.28-3.4784-1.28-5.5988 0-2.0333.412-3.8705 1.237-5.5117.824-1.6411 2.01-2.9264 3.558-3.8559 1.547-.9295 3.362-1.3943 5.445-1.3943zm-.261 3.9214c-1.475 0-2.69.3776-3.644 1.1328-.955.7552-1.562 1.8444-1.822 3.2677h10.716c-.087-1.3942-.6-2.4762-1.54-3.2459-.94-.7698-2.177-1.1546-3.71-1.1546zm19.959 17.5152c-1.418 0-2.842-.1888-4.274-.5664s-2.726-.9005-3.883-1.5686l1.909-3.7906c2.198 1.2781 4.324 1.9171 6.378 1.9171 2.082 0 3.124-.6245 3.124-1.8735 0-.4357-.152-.8206-.456-1.1546s-.86-.7044-1.67-1.111l-3.645-1.7864c-2.806-1.3362-4.209-3.2678-4.209-5.7949 0-1.8299.63-3.2387 1.888-4.2263s3.001-1.4814 5.228-1.4814c1.128 0 2.292.138 3.493.414 1.2.2759 2.35.6608 3.449 1.1546l-1.735 3.7034c-2.025-.8714-3.804-1.3071-5.337-1.3071-1.649 0-2.473.5083-2.473 1.525 0 .4938.166.915.499 1.2635.332.3486.933.7262 1.8 1.1328l3.732 1.7864c1.33.61 2.328 1.3725 2.993 2.2875.666.9149.998 2.0405.998 3.3767 0 2.0042-.701 3.5219-2.104 4.553-1.403 1.0312-3.305 1.5468-5.705 1.5468zm17.138-17.1667v10.544c0 .7262.166 1.2563.499 1.5903.332.3341.86.5011 1.583.5011h1.041v3.9213h-1.952c-1.764 0-3.109-.4502-4.035-1.3507-.926-.9004-1.388-2.1785-1.388-3.8342v-11.3718h-3.558v-3.6163h3.558v-8.0605h4.252v8.0605h4.078v3.6163z" fill-rule="evenodd"/></g></svg>

<svg width="184" height="88" viewBox="0 0 184 88" fill="none" xmlns="http://www.w3.org/2000/svg">
<path d="M28.8566 27.1961C41.2813 26.2309 48.7917 20.1305 51.1319 12C34.7351 19.7898 14.2751 10.2601 10.4027 27.4723L8.41756 36.6481C11.8709 31.1236 16.4324 28.1614 28.8566 27.1961ZM22.3962 28.7586C16.2896 29.6657 11.3913 32.5865 8.64237 37.7166C7.75735 39.3673 7.44654 41.1414 7.44654 41.1414L6.04143 47.6361C7.80162 44.3997 10.9495 40.2634 19.1995 38.2952C19.3851 37.2653 20.5116 31.3619 22.3962 28.7586ZM4.75929 53.5624L2.61315 63.4829C8.29936 52.3197 20.5362 50.1531 22.0473 49.8274C32.7033 47.5298 37.8337 42.0745 39.8738 34.9852C30.576 40.4064 8.87313 33.5992 4.75929 53.5624ZM1.57953 68.2627L0 75.564C12.6018 74.8325 13.9917 62.3456 16.0479 52.4261C12.1273 53.8371 3.48686 59.3666 1.57953 68.2627Z" fill="#808080"/>
<path fill-rule="evenodd" clip-rule="evenodd" d="M74.3082 32.7626V41.3459H86.3699V45.6158H74.3082V58.9918H69.7959V28.4927H87.3678V32.7626H74.3082ZM100.948 38.2088C103.031 38.2088 104.904 38.6736 106.567 39.6031C108.23 40.5326 109.539 41.8106 110.493 43.4373C111.448 45.0639 111.925 46.8938 111.925 48.9271C111.925 50.9604 111.448 52.7903 110.493 54.417C109.539 56.0436 108.23 57.3216 106.567 58.2511C104.904 59.1806 103.031 59.6454 100.948 59.6454C98.8655 59.6454 96.9926 59.1806 95.3294 58.2511C93.6662 57.3216 92.3574 56.0436 91.4028 54.417C90.4483 52.7903 89.9711 50.9604 89.9711 48.9271C89.9711 46.8938 90.4483 45.0639 91.4028 43.4373C92.3574 41.8106 93.6662 40.5326 95.3294 39.6031C96.9926 38.6736 98.8655 38.2088 100.948 38.2088ZM100.948 42.3916C99.039 42.3916 97.4843 42.987 96.2839 44.178C95.0835 45.3689 94.4834 46.9519 94.4834 48.9271C94.4834 50.9023 95.0835 52.4853 96.2839 53.6763C97.4843 54.8672 99.039 55.4626 100.948 55.4626C102.857 55.4626 104.412 54.8672 105.612 53.6763C106.813 52.4853 107.413 50.9023 107.413 48.9271C107.413 46.9519 106.813 45.3689 105.612 44.178C104.412 42.987 102.857 42.3916 100.948 42.3916ZM127.111 43.263H126.46C124.348 43.263 122.758 43.8076 121.687 44.8969C120.617 45.9861 120.082 47.7071 120.082 50.0599V58.9918H115.83V38.8624H120.082V43.263H120.169C120.66 41.7235 121.478 40.5035 122.62 39.6031C123.763 38.7026 125.158 38.2524 126.807 38.2524H127.111V43.263ZM139.086 38.2088C142.094 38.2088 144.444 39.1746 146.136 41.1063C147.828 43.0379 148.674 45.6448 148.674 48.9271V49.6242H133.142C133.228 51.3961 133.829 52.8266 134.942 53.9159C136.056 55.0052 137.48 55.5498 139.216 55.5498C140.662 55.5498 141.87 55.2085 142.839 54.5259C143.808 53.8433 144.654 53.0082 145.377 52.0206L148.371 54.8527C146.057 58.0478 143.034 59.6454 139.303 59.6454C137.191 59.6454 135.347 59.2024 133.771 58.3165C132.194 57.4306 130.979 56.1816 130.126 54.5695C129.273 52.9573 128.846 51.0911 128.846 48.9707C128.846 46.9374 129.258 45.1002 130.083 43.459C130.907 41.8179 132.093 40.5326 133.641 39.6031C135.188 38.6736 137.003 38.2088 139.086 38.2088ZM138.825 42.1302C137.35 42.1302 136.135 42.5078 135.181 43.263C134.226 44.0182 133.619 45.1074 133.359 46.5307H144.075C143.988 45.1365 143.475 44.0545 142.535 43.2848C141.595 42.515 140.358 42.1302 138.825 42.1302ZM158.784 59.6454C157.366 59.6454 155.942 59.4566 154.51 59.079C153.078 58.7014 151.784 58.1785 150.627 57.5104L152.536 53.7198C154.734 54.9979 156.86 55.6369 158.914 55.6369C160.996 55.6369 162.038 55.0124 162.038 53.7634C162.038 53.3277 161.886 52.9428 161.582 52.6088C161.278 52.2748 160.722 51.9044 159.912 51.4978L156.267 49.7114C153.461 48.3752 152.058 46.4436 152.058 43.9165C152.058 42.0866 152.688 40.6778 153.946 39.6902C155.204 38.7026 156.947 38.2088 159.174 38.2088C160.302 38.2088 161.466 38.3468 162.667 38.6228C163.867 38.8987 165.017 39.2836 166.116 39.7774L164.381 43.4808C162.356 42.6094 160.577 42.1737 159.044 42.1737C157.395 42.1737 156.571 42.682 156.571 43.6987C156.571 44.1925 156.737 44.6137 157.07 44.9622C157.402 45.3108 158.003 45.6884 158.87 46.095L162.602 47.8814C163.932 48.4914 164.93 49.2539 165.595 50.1689C166.261 51.0838 166.593 52.2094 166.593 53.5456C166.593 55.5498 165.892 57.0675 164.489 58.0986C163.086 59.1298 161.184 59.6454 158.784 59.6454ZM175.922 42.4787V53.0227C175.922 53.7489 176.088 54.279 176.421 54.613C176.753 54.9471 177.281 55.1141 178.004 55.1141H179.045V59.0354H177.093C175.329 59.0354 173.984 58.5852 173.058 57.6847C172.132 56.7843 171.67 55.5062 171.67 53.8505V42.4787H168.112V38.8624H171.67V30.8019H175.922V38.8624H180V42.4787H175.922Z" fill="#808080"/>
</svg>
